!!!COM: Castagne, Patrick Stanislaus
!!!CDT: 1916-2000
!!!OTL: National Anthem, Trinidad and Tobago
!!!ENC: Davis, Matthew J.
!!Vocal Line Only
**kern
*clefG2
*k[b-e-a-d-]
*X:
*M4/4
=1-
1r
=2
1r
==3
4f
8.f
16f
4f
4g
=4
4.a-
8g
4f
8.f
16a-
=5
4cc
4cc
4.dd-
8b-
=6
2.cc
4cc
=7
4dd-
4cc
4b-
8.a-
16a-
=8
4.g
8a-
4b-
4dd-
=9
4cc
4f
4.g
8g
=10
2.c
4r
==11
*k[b-]
!Chorus
4f
4f
4f
4g
=12
2.a
8.a
16b-
=13
4cc
4a
4.dd
8cc
=14
4cc
4b-
2g
=15
4g
4g
4g
4a
=16
2.b-
4cc
=17
4ee
4dd
4cc
4b-
=18
2a
8r
8cc
8cc
8cc
=19
4ff
4ff
4ee
8.dd
16dd
=20
4cc
4cc#
4dd
8b-
8g
=21
2cc
4.b-
8g
=22
4g
4a
8r
8cc
8cc
8cc
=23
4ff
4ff
4ee
8.dd
16dd
=24
4cc
4cc#
4dd
8b-
8g
=25
2cc
4.b-
8g
=26
4g
2f
4r
==|!
*-
